!!!SOCIAL_FUNCTION:	songs connected with the treatment of the sick
!!!PDT:	1932
!!!OTL: No_72_I_Am_Rewarding_You.krn
!!!REG: Wisconsin
!!!LANG: Non-Tone
!!!LING_GROUP: Algonquin
**kern
*staff1
=1-
*clefF4
*k[b-]
*M3/4
8c\L
8c\J
4A\
8.c\L
16d\Jk
=2||
*M2/4
2c\
=3||
*M3/4
16c\LK
8.A\J
16G\LK
8F\J
16r
8.A\L
16c\Jk
=4||
*M2/4
2A\
=5
16G\LK
8.F\J
16F\LK
8D\J
16r
=6
8.F\L
16G\Jk
4F\
=7||
*M3/4
2F\
4r
=8
16A\LK
8.A\J
16G\LK
8.F\J
16D/LK
8.C/J
=9||
*M2/4
2D\
=10||
*M3/4
16D/LK
8.C/J
16C/LK
8AA/J
16r
8.C/L
16C/Jk
=11
2.C/
==
*-
